X:40
M:3/2
L:1/4
Q:1/2=100
K:C
"6/4 in book"e2d/e/f/d/e2 | Gc2ded/c/ | d/e/f/d/ e/f/g/e/ ed/c/ | c3GED/C/ ||
E/G/c/G/ E/G/c/G/ E/D/C | E/G/c/G/ E/G/c/G/FD |\
E/G/c/G/ E/G/c/G/ E/D/C | D/E/F/G/AEFD ||

